assets/payment/icon2.svg

<svg width="48" height="48" viewBox="0 0 48 48" fill="none" xmlns="http://www.w3.org/2000/svg">
<path d="M42.0168 39.0218C41.8664 39.0218 41.6407 38.9466 41.5655 38.8714C41.2647 38.5706 41.1895 38.1193 41.4903 37.8185C44.649 33.9828 46.454 29.019 46.454 23.9048C46.454 18.7906 44.7994 14.0524 41.5655 10.0663C41.3399 9.76546 41.3399 9.239 41.716 9.01337C42.0168 8.78774 42.5432 8.78774 42.7689 9.08858C46.1532 13.3003 47.9581 18.4145 47.9581 23.8296C47.9581 29.2446 46.078 34.5845 42.6936 38.6458C42.468 38.9466 42.2424 39.0218 42.0168 39.0218Z" fill="#2D31FA"/>
<path d="M24.419 43.008H24.0429C13.6644 42.8576 5.24121 34.2838 5.24121 23.9049C5.24121 13.526 13.6644 4.95218 24.0429 4.80176H24.795C35.1735 4.95218 43.5967 13.526 43.5967 23.9049C43.5967 34.2838 35.1735 42.8576 24.795 43.008H24.419ZM24.0429 6.30594C14.4917 6.45636 6.74535 14.3533 6.74535 23.9049C6.74535 33.4565 14.4917 41.3534 24.0429 41.5038H24.795C34.3463 41.3534 42.0926 33.4565 42.0926 23.9049C42.0926 14.3533 34.3463 6.45636 24.795 6.30594H24.0429ZM17.4247 24.3561C16.9735 24.3561 16.6727 24.0553 16.6727 23.6041V20.8965C16.6727 19.8436 17.4999 19.0163 18.5528 19.0163H24.419C24.8702 19.0163 25.171 19.3171 25.171 19.7684C25.171 20.2196 24.8702 20.5205 24.419 20.5205H18.5528C18.4024 20.5205 18.1768 20.7461 18.1768 20.8965V23.6041C18.1768 24.0553 17.876 24.3561 17.4247 24.3561Z" fill="#2D31FA"/>
<path d="M24.4199 35.0363C21.2612 35.0363 18.0273 34.5851 15.1695 33.6826C9.07773 31.8023 5.31738 28.0419 5.31738 23.9054C5.31738 19.8441 9.07773 16.1588 15.1695 14.1282C17.8769 13.2257 20.9604 12.7744 24.4199 12.7744C27.5786 12.7744 30.8125 13.2257 33.6704 14.1282C39.8373 16.0084 43.5977 19.7689 43.5225 23.9054C43.5225 27.8915 39.7621 31.6519 33.6704 33.6074C30.9629 34.5851 27.8794 35.0363 24.4199 35.0363ZM24.4199 14.2786C21.1108 14.2786 18.1778 14.7299 15.6207 15.5572C10.2058 17.3622 6.82152 20.521 6.82152 23.9054C6.82152 27.365 10.2058 30.5238 15.6207 32.1784C18.4034 33.0809 21.4117 33.5322 24.4199 33.5322C27.729 33.5322 30.6621 33.0809 33.2191 32.2536C38.634 30.5238 42.0183 27.2898 42.0183 23.9054C42.0935 20.4458 38.7092 17.287 33.2191 15.6324C30.4365 14.7299 27.4282 14.2786 24.4199 14.2786ZM17.4257 24.3566C16.9744 24.3566 16.6736 24.0558 16.6736 23.6045V20.897C16.6736 19.8441 17.5009 19.0168 18.5538 19.0168H24.4199C24.8712 19.0168 25.172 19.3176 25.172 19.7689C25.172 20.2201 24.8712 20.521 24.4199 20.521H18.5538C18.4034 20.521 18.1778 20.7466 18.1778 20.897V23.6045C18.1778 24.0558 17.8769 24.3566 17.4257 24.3566Z" fill="#2D31FA"/>
<path d="M24.4177 43.008H24.0417C20.0557 42.7824 16.5962 39.0972 14.6408 33.1556C13.7383 30.4481 13.2871 27.3645 13.2871 23.9049C13.2871 20.7461 13.7383 17.5121 14.6408 14.6542C16.521 8.71264 20.0557 5.02739 23.9665 4.80176H24.7938C28.7797 5.02739 32.2392 8.71264 34.1194 14.6542C35.0219 17.3617 35.5483 20.4453 35.5483 23.9049C35.5483 27.0637 35.0971 30.2977 34.1946 33.1556C32.3144 39.0972 28.7797 42.7824 24.869 43.008H24.4177ZM24.0417 6.30594C20.8078 6.53157 17.7995 9.76556 16.145 15.1054C15.2425 17.8882 14.7912 20.8965 14.7912 23.9049C14.7912 27.2141 15.2425 30.1473 16.0698 32.7044C17.7243 37.969 20.8078 41.3534 24.0417 41.5038H24.7186C27.9524 41.2782 30.9607 38.0442 32.6153 32.7044C33.593 29.9216 34.0442 26.9133 34.0442 23.9049C34.0442 20.5957 33.593 17.6625 32.7657 15.1054C31.1111 9.84077 28.0277 6.53157 24.7938 6.30594H24.0417ZM17.4235 24.3561C16.9722 24.3561 16.6714 24.0553 16.6714 23.6041V20.8965C16.6714 19.8436 17.4987 19.0163 18.5516 19.0163H24.4177C24.869 19.0163 25.1698 19.3171 25.1698 19.7684C25.1698 20.2196 24.869 20.5205 24.4177 20.5205H18.5516C18.4012 20.5205 18.1756 20.7461 18.1756 20.8965V23.6041C18.1756 24.0553 17.8747 24.3561 17.4235 24.3561Z" fill="#2D31FA"/>
<path d="M24.4181 43.0867C23.9668 43.0867 23.666 42.7859 23.666 42.3346V34.2872C23.666 33.836 23.9668 33.5352 24.4181 33.5352C24.8693 33.5352 25.1702 33.836 25.1702 34.2872V42.3346C25.1702 42.7859 24.8693 43.0867 24.4181 43.0867Z" fill="#2D31FA"/>
<path d="M24.4181 14.2791C23.9668 14.2791 23.666 13.9783 23.666 13.527V5.47963C23.666 5.02838 23.9668 4.72754 24.4181 4.72754C24.8693 4.72754 25.1702 5.02838 25.1702 5.47963V13.527C25.1702 13.9783 24.8693 14.2791 24.4181 14.2791Z" fill="#2D31FA"/>
<path d="M42.8451 24.6575H34.798C34.3467 24.6575 34.0459 24.3567 34.0459 23.9054C34.0459 23.4542 34.3467 23.1533 34.798 23.1533H42.8451C43.2963 23.1533 43.5972 23.4542 43.5972 23.9054C43.5972 24.3567 43.2963 24.6575 42.8451 24.6575Z" fill="#2D31FA"/>
<path d="M14.0404 24.6575H5.99328C5.54204 24.6575 5.24121 24.3567 5.24121 23.9054C5.24121 23.4542 5.54204 23.1533 5.99328 23.1533H14.0404C14.4917 23.1533 14.7925 23.4542 14.7925 23.9054C14.7925 24.3567 14.4917 24.6575 14.0404 24.6575Z" fill="#2D31FA"/>
<path d="M30.2853 31.2024H18.553C17.5001 31.2024 16.6729 30.3751 16.6729 29.3222V23.5311C16.6729 23.0799 16.9737 22.779 17.4249 22.779C17.8762 22.779 18.177 23.0799 18.177 23.5311V29.3222C18.177 29.4726 18.4026 29.6983 18.553 29.6983H30.2853C30.4357 29.6983 30.6613 29.4726 30.6613 29.3222V20.8988C30.6613 20.7484 30.4357 20.5227 30.2853 20.5227H24.4192C23.9679 20.5227 23.6671 20.2219 23.6671 19.7706C23.6671 19.3194 23.9679 19.0186 24.4192 19.0186H30.2853C31.3382 19.0186 32.1655 19.8459 32.1655 20.8988V29.3222C32.1655 30.3751 31.3382 31.2024 30.2853 31.2024Z" fill="#2D31FA"/>
<path d="M27.5782 20.5232C27.127 20.5232 26.8262 20.2223 26.8262 19.7711V18.643C26.8262 18.4173 26.751 18.1165 26.5253 18.1165H22.3138C22.1633 18.1165 22.0129 18.3421 22.0129 18.643V19.7711C22.0129 20.2223 21.7121 20.5232 21.2609 20.5232C20.8096 20.5232 20.5088 20.2223 20.5088 19.7711V18.643C20.5088 17.5148 21.3361 16.6123 22.3138 16.6123H26.5253C27.5782 16.6123 28.3303 17.5148 28.3303 18.643V19.7711C28.3303 20.2223 28.0295 20.5232 27.5782 20.5232Z" fill="#2D31FA"/>
<path d="M22.54 26.1604H17.4259C16.9747 26.1604 16.6738 25.8596 16.6738 25.4083C16.6738 24.9571 16.9747 24.6562 17.4259 24.6562H22.54C22.9912 24.6562 23.292 24.9571 23.292 25.4083C23.292 25.8596 22.9912 26.1604 22.54 26.1604Z" fill="#2D31FA"/>
<path d="M31.413 26.1604H26.2989C25.8477 26.1604 25.5469 25.8596 25.5469 25.4083C25.5469 24.9571 25.8477 24.6562 26.2989 24.6562H31.4882C31.9395 24.6562 32.2403 24.9571 32.2403 25.4083C32.2403 25.8596 31.8643 26.1604 31.413 26.1604Z" fill="#2D31FA"/>
<path d="M26.2243 27.6659H22.5392C22.0879 27.6659 21.7871 27.365 21.7871 26.9138V23.9054C21.7871 23.4542 22.0879 23.1533 22.5392 23.1533H26.2243C26.6756 23.1533 26.9764 23.4542 26.9764 23.9054V26.9138C26.9764 27.365 26.6756 27.6659 26.2243 27.6659ZM23.2912 26.1617H25.4722V24.6575H23.2912V26.1617Z" fill="#2D31FA"/>
<path d="M9.82692 7.21024C9.6013 7.21024 9.37568 7.13503 9.22527 6.9094C8.99965 6.60856 8.99965 6.15731 9.37568 5.85647C13.5121 2.32164 18.8517 0.441406 24.4171 0.441406C29.9072 0.441406 35.0964 2.32164 39.3832 5.78126C39.684 6.00689 39.7592 6.53335 39.4584 6.83419C39.2328 7.13503 38.7064 7.21024 38.4055 6.9094C34.4196 3.6754 29.5311 1.94559 24.4171 1.94559C19.2278 1.94559 14.1889 3.75061 10.2782 7.05982C10.203 7.13503 9.97733 7.21024 9.82692 7.21024Z" fill="#2D31FA"/>
<path d="M24.4184 47.4447C18.9283 47.4447 13.5886 45.4892 9.45226 42.0296C9.15143 41.7288 9.07623 41.2775 9.37705 40.9767C9.67788 40.6758 10.1291 40.6006 10.4299 40.9015C14.3407 44.2107 19.3044 46.0157 24.4936 46.0157C29.6077 46.0157 34.5714 44.2107 38.4821 40.9767C38.7829 40.6758 39.3094 40.7511 39.535 41.0519C39.8358 41.3527 39.7606 41.8792 39.4598 42.1048C35.173 45.5644 29.8333 47.4447 24.4184 47.4447Z" fill="#2D31FA"/>
<path d="M6.81926 38.9486C6.59364 38.9486 6.36802 38.8734 6.21761 38.6477C2.75809 34.436 0.953125 29.3218 0.953125 23.9067C0.953125 18.5669 2.75809 13.3022 6.06719 9.24092C6.36802 8.86488 6.81926 8.86488 7.12009 9.0905C7.42092 9.31613 7.49612 9.8426 7.2705 10.1434C4.18702 13.9791 2.45726 18.8677 2.45726 23.9067C2.45726 29.021 4.18702 33.8343 7.42092 37.7452C7.72174 38.0461 7.64654 38.5725 7.34571 38.7981C7.1953 38.8734 6.96967 38.9486 6.81926 38.9486Z" fill="#2D31FA"/>
<path d="M40.7378 10.8185C39.0832 10.8185 37.7295 9.46473 37.7295 7.81013C37.7295 6.15552 39.0832 4.80176 40.7378 4.80176C42.3923 4.80176 43.746 6.15552 43.746 7.81013C43.746 9.46473 42.3923 10.8185 40.7378 10.8185ZM40.7378 6.30594C39.9105 6.30594 39.2336 6.98283 39.2336 7.81013C39.2336 8.63743 39.9105 9.31431 40.7378 9.31431C41.565 9.31431 42.2419 8.63743 42.2419 7.81013C42.2419 6.98283 41.565 6.30594 40.7378 6.30594Z" fill="#2D31FA"/>
<path d="M40.7378 43.1603C39.0832 43.1603 37.7295 41.8065 37.7295 40.1519C37.7295 38.4973 39.0832 37.1436 40.7378 37.1436C42.3923 37.1436 43.746 38.4973 43.746 40.1519C43.746 41.8065 42.3923 43.1603 40.7378 43.1603ZM40.7378 38.6477C39.9105 38.6477 39.2336 39.3246 39.2336 40.1519C39.2336 40.9792 39.9105 41.6561 40.7378 41.6561C41.565 41.6561 42.2419 40.9792 42.2419 40.1519C42.2419 39.3246 41.565 38.6477 40.7378 38.6477Z" fill="#2D31FA"/>
<path d="M8.02292 10.8185C6.36837 10.8185 5.01465 9.46473 5.01465 7.81013C5.01465 6.15552 6.36837 4.80176 8.02292 4.80176C9.67747 4.80176 11.0312 6.15552 11.0312 7.81013C11.0312 9.46473 9.67747 10.8185 8.02292 10.8185ZM8.02292 6.30594C7.19565 6.30594 6.51879 6.98283 6.51879 7.81013C6.51879 8.63743 7.19565 9.31431 8.02292 9.31431C8.8502 9.31431 9.52706 8.63743 9.52706 7.81013C9.52706 6.98283 8.8502 6.30594 8.02292 6.30594Z" fill="#2D31FA"/>
<path d="M8.02292 43.1603C6.36837 43.1603 5.01465 41.8065 5.01465 40.1519C5.01465 38.4973 6.36837 37.1436 8.02292 37.1436C9.67747 37.1436 11.0312 38.4973 11.0312 40.1519C11.0312 41.8065 9.67747 43.1603 8.02292 43.1603ZM8.02292 38.6477C7.19565 38.6477 6.51879 39.3246 6.51879 40.1519C6.51879 40.9792 7.19565 41.6561 8.02292 41.6561C8.8502 41.6561 9.52706 40.9792 9.52706 40.1519C9.52706 39.3246 8.8502 38.6477 8.02292 38.6477Z" fill="#2D31FA"/>
</svg>

<svg xmlns="http://www.w3.org/2000/svg" width="48" height="48" fill="none" viewBox="0 0 48 48"><path fill="#2d31fa" d="M42.017 39.022c-.15 0-.376-.075-.452-.15-.3-.301-.375-.753-.075-1.053 3.159-3.836 4.964-8.8 4.964-13.914s-1.655-9.853-4.889-13.839c-.225-.3-.225-.827.151-1.053.3-.225.827-.225 1.053.076a23.34 23.34 0 0 1 5.19 14.74c0 5.416-1.881 10.755-5.265 14.817-.226.3-.452.376-.677.376"/><path fill="#2d31fa" d="M24.419 43.008h-.376C13.664 42.858 5.24 34.284 5.24 23.905S13.664 4.952 24.043 4.802h.752c10.378.15 18.802 8.724 18.802 19.103s-8.424 18.953-18.802 19.103zm-.376-36.702c-9.551.15-17.298 8.047-17.298 17.599s7.747 17.448 17.298 17.599h.752c9.551-.15 17.298-8.047 17.298-17.6 0-9.55-7.747-17.448-17.298-17.598zm-6.618 18.05c-.451 0-.752-.3-.752-.752v-2.707c0-1.053.827-1.88 1.88-1.88h5.866c.451 0 .752.3.752.751 0 .452-.3.752-.752.752h-5.866c-.15 0-.376.226-.376.377v2.707c0 .451-.301.752-.752.752"/><path fill="#2d31fa" d="M24.42 35.036c-3.159 0-6.393-.45-9.25-1.353-6.092-1.88-9.853-5.641-9.853-9.778 0-4.06 3.76-7.746 9.853-9.777q4.06-1.353 9.25-1.354c3.159 0 6.392.452 9.25 1.354 6.167 1.88 9.928 5.64 9.853 9.777 0 3.986-3.76 7.747-9.853 9.702-2.707.978-5.79 1.43-9.25 1.43m0-20.757c-3.31 0-6.242.45-8.8 1.278-5.414 1.805-8.798 4.964-8.798 8.348 0 3.46 3.384 6.619 8.799 8.273 2.782.903 5.79 1.354 8.799 1.354 3.309 0 6.242-.451 8.8-1.278 5.414-1.73 8.798-4.964 8.798-8.349.075-3.46-3.309-6.618-8.799-8.273-2.783-.902-5.79-1.353-8.8-1.353m-6.994 10.078c-.452 0-.752-.301-.752-.752v-2.708c0-1.053.827-1.88 1.88-1.88h5.866c.451 0 .752.3.752.752 0 .451-.3.752-.752.752h-5.866c-.15 0-.376.226-.376.376v2.708c0 .45-.301.752-.752.752"/><path fill="#2d31fa" d="M24.418 43.008h-.376c-3.986-.226-7.446-3.91-9.401-9.852q-1.354-4.061-1.354-9.251c0-3.159.451-6.393 1.354-9.25 1.88-5.942 5.415-9.628 9.326-9.853h.827c3.986.225 7.445 3.91 9.325 9.852.903 2.708 1.43 5.791 1.43 9.25 0 3.16-.452 6.394-1.354 9.252-1.88 5.941-5.415 9.626-9.326 9.852zm-.376-36.702c-3.234.226-6.243 3.46-7.897 8.8-.902 2.782-1.354 5.79-1.354 8.799 0 3.31.451 6.242 1.279 8.8 1.654 5.264 4.738 8.648 7.972 8.799h.677c3.233-.226 6.242-3.46 7.896-8.8.978-2.782 1.43-5.79 1.43-8.8 0-3.308-.452-6.241-1.28-8.799-1.654-5.264-4.737-8.573-7.971-8.8zm-6.619 18.05c-.45 0-.752-.3-.752-.752v-2.707c0-1.053.828-1.88 1.88-1.88h5.867c.451 0 .752.3.752.751 0 .452-.301.752-.752.752h-5.866c-.15 0-.376.226-.376.377v2.707c0 .451-.301.752-.752.752"/><path fill="#2d31fa" d="M24.418 43.087c-.451 0-.752-.301-.752-.752v-8.048c0-.451.3-.752.752-.752.451 0 .752.301.752.752v8.048c0 .45-.3.752-.752.752m0-28.807c-.451 0-.752-.302-.752-.753V5.48c0-.452.3-.752.752-.752.451 0 .752.3.752.752v8.047c0 .451-.3.752-.752.752m18.427 10.379h-8.047c-.451 0-.752-.301-.752-.753 0-.45.3-.752.752-.752h8.047c.451 0 .752.301.752.752 0 .452-.3.752-.752.752m-28.805.001H5.993c-.451 0-.752-.301-.752-.753 0-.45.301-.752.752-.752h8.047c.452 0 .753.301.753.752 0 .452-.301.752-.753.752m16.245 6.545H18.553a1.86 1.86 0 0 1-1.88-1.88v-5.79c0-.452.3-.753.752-.753.451 0 .752.3.752.752v5.791c0 .15.226.376.376.376h11.732c.15 0 .376-.225.376-.376V20.9c0-.15-.225-.376-.376-.376H24.42c-.451 0-.752-.301-.752-.752 0-.452.3-.752.752-.752h5.866c1.053 0 1.88.827 1.88 1.88v8.423c0 1.053-.827 1.88-1.88 1.88"/><path fill="#2d31fa" d="M27.578 20.523c-.451 0-.752-.3-.752-.752v-1.128c0-.226-.075-.527-.3-.527h-4.212c-.15 0-.301.226-.301.527v1.128c0 .451-.3.752-.752.752-.451 0-.752-.3-.752-.752v-1.128c0-1.128.827-2.03 1.805-2.03h4.211c1.053 0 1.805.902 1.805 2.03v1.128c0 .451-.3.752-.752.752M22.54 26.16h-5.114c-.451 0-.752-.3-.752-.752 0-.45.3-.752.752-.752h5.114c.451 0 .752.301.752.752 0 .452-.3.752-.752.752m8.873 0h-5.114c-.451 0-.752-.3-.752-.752 0-.45.3-.752.752-.752h5.19c.45 0 .751.301.751.752 0 .452-.376.752-.827.752"/><path fill="#2d31fa" d="M26.224 27.666H22.54c-.451 0-.752-.301-.752-.752v-3.009c0-.45.3-.752.752-.752h3.685c.452 0 .752.301.752.752v3.009c0 .451-.3.752-.752.752m-2.933-1.504h2.181v-1.505h-2.18zM9.827 7.21c-.226 0-.451-.075-.602-.3a.743.743 0 0 1 .15-1.054C13.513 2.322 18.853.441 24.418.441c5.49 0 10.68 1.88 14.966 5.34.301.226.376.752.075 1.053-.225.301-.752.376-1.052.075a22.1 22.1 0 0 0-13.989-4.963c-5.19 0-10.228 1.805-14.139 5.114-.075.075-.3.15-.451.15m14.59 40.235c-5.49 0-10.83-1.956-14.966-5.415-.3-.301-.376-.752-.075-1.053.3-.301.752-.376 1.053-.075 3.91 3.309 8.874 5.114 14.064 5.114a22 22 0 0 0 13.988-5.04c.3-.3.827-.225 1.053.076.3.3.226.827-.075 1.053-4.287 3.46-9.627 5.34-15.042 5.34M6.82 38.949c-.226 0-.452-.076-.602-.301C2.758 34.436.953 29.322.953 23.907c0-5.34 1.805-10.605 5.114-14.666a.743.743 0 0 1 1.053-.15c.3.225.376.752.15 1.052-3.083 3.836-4.813 8.725-4.813 13.764 0 5.114 1.73 9.927 4.964 13.838.3.301.226.828-.075 1.053-.15.075-.376.15-.527.15"/><path fill="#2d31fa" d="M40.738 10.819A3.017 3.017 0 0 1 37.73 7.81a3.017 3.017 0 0 1 3.008-3.008 3.017 3.017 0 0 1 3.008 3.008 3.017 3.017 0 0 1-3.008 3.009m0-4.513c-.828 0-1.504.677-1.504 1.504s.676 1.504 1.504 1.504c.827 0 1.504-.677 1.504-1.504s-.677-1.504-1.504-1.504m0 36.854a3.017 3.017 0 0 1-3.008-3.008 3.017 3.017 0 0 1 3.008-3.008 3.017 3.017 0 0 1 3.008 3.008 3.017 3.017 0 0 1-3.008 3.008m0-4.512c-.828 0-1.504.677-1.504 1.504s.676 1.504 1.504 1.504c.827 0 1.504-.677 1.504-1.504s-.677-1.504-1.504-1.504M8.023 10.819A3.017 3.017 0 0 1 5.015 7.81a3.017 3.017 0 0 1 3.008-3.008A3.017 3.017 0 0 1 11.03 7.81a3.017 3.017 0 0 1-3.008 3.009m0-4.513c-.827 0-1.504.677-1.504 1.504s.677 1.504 1.504 1.504 1.504-.677 1.504-1.504-.677-1.504-1.504-1.504m.001 36.854a3.017 3.017 0 0 1-3.008-3.008 3.017 3.017 0 0 1 3.008-3.008 3.017 3.017 0 0 1 3.008 3.008 3.017 3.017 0 0 1-3.008 3.008m0-4.512c-.827 0-1.504.677-1.504 1.504s.677 1.504 1.504 1.504 1.504-.677 1.504-1.504-.677-1.504-1.504-1.504"/></svg>
